iconography/32x32/SDK.svg

<svg width="32" height="32" viewBox="0 0 32 32" fill="none" xmlns="http://www.w3.org/2000/svg">
<rect x="3" y="8.00012" width="25.2801" height="19.8241" rx="1.72801" stroke="#002E42" stroke-width="2"/>
<path d="M9 8.4V6C9 4.34315 10.3431 3 12 3H19.2C20.8569 3 22.2 4.34315 22.2 6V8.4" stroke="#002E42" stroke-width="2"/>
<path d="M20.5239 17.7401C21.0711 18.688 23.7357 19.6774 25.9573 18.3947C27.3417 17.5954 27.864 16.3123 27.9287 15.2294C27.9827 14.3242 26.9966 14.003 26.2113 14.4564V14.4564C25.2634 15.0037 23.7682 14.603 23.2209 13.6551C22.6737 12.7072 23.0743 11.212 24.0222 10.6648V10.6648C24.7665 10.235 24.9367 9.2199 24.182 8.80868C23.2501 8.30088 21.9616 8.06283 20.4846 8.91559C18.1148 10.2838 18.1034 12.8181 18.3348 13.9484" stroke="#002E42" stroke-width="2" stroke-linecap="round"/>
<path d="M10.7513 18.3267C10.204 17.3787 7.53949 16.3894 5.31783 17.672C3.93342 18.4713 3.41112 19.7544 3.3465 20.8373C3.29248 21.7425 4.27856 22.0637 5.06383 21.6103V21.6103C6.01174 21.063 7.50693 21.4637 8.0542 22.4116C8.60148 23.3595 8.20085 24.8547 7.25294 25.4019V25.4019C6.50863 25.8317 6.33843 26.8468 7.09312 27.258C8.02508 27.7658 9.31357 28.0039 10.7906 27.1511C13.1604 25.7829 13.1717 23.2486 12.9404 22.1183" stroke="#002E42" stroke-width="2" stroke-linecap="round"/>
<path d="M18.3345 13.9484L10.7512 18.3266" stroke="#002E42" stroke-width="2" stroke-linecap="round"/>
<path d="M20.5234 17.7401L12.9402 22.1183" stroke="#002E42" stroke-width="2" stroke-linecap="round"/>
</svg>

<svg width="32" height="32" fill="none" xmlns="http://www.w3.org/2000/svg"><rect x="3" y="8" width="25.28" height="19.824" rx="1.728" stroke="#002E42" stroke-width="2"/><path d="M9 8.4V6a3 3 0 0 1 3-3h7.2a3 3 0 0 1 3 3v2.4" stroke="#002E42" stroke-width="2"/><path d="M20.524 17.74c.547.948 3.212 1.937 5.433.655a3.86 3.86 0 0 0 1.972-3.166c.054-.905-.932-1.226-1.718-.773v0c-.948.548-2.443.147-2.99-.8-.547-.949-.147-2.444.801-2.991v0c.745-.43.915-1.445.16-1.856-.932-.508-2.22-.746-3.697.107-2.37 1.368-2.382 3.902-2.15 5.032m-7.584 4.379c-.547-.948-3.212-1.938-5.433-.655a3.86 3.86 0 0 0-1.971 3.165c-.055.905.932 1.227 1.717.773v0c.948-.547 2.443-.146 2.99.802.547.948.147 2.443-.801 2.99v0c-.744.43-.915 1.445-.16 1.856.932.508 2.22.746 3.698-.107 2.37-1.368 2.38-3.902 2.15-5.033m5.393-8.17-7.583 4.379m9.772-.587-7.583 4.378" stroke="#002E42" stroke-width="2" stroke-linecap="round"/></svg>
